X:6095
T:Gaspé Reel
M:4/4
K:D
f3f2e2d2|F2A2B2A2|g2fgf2e2|BABc (3BcB A2|f3fe2d2|F2A2B2A2|g2fgf2e2|B2c2d4:||c2d2e4|d2e2f4|c2d2e4|BABc (3BcB A2|c2d2e4|d2e2f4|g3fe2d2|B2c2d4:||


